X:1
T:Jenny's Baby -- Reel
R:reel
N:AKA Polly put the Kettle on
B:Ryan's Mammoth Collection
N:136
Z: Contributed by Ray Davies,  ray:davies99.freeserve.co.uk
M:C|
L:1/8
K:D
uf|abag fddf | gBe<d cAAf | abag fddf | B/B/B (c<A) d2 df |
abag fddf | gBed cAAf | abag fddf | B/B/B cA d2 d |]
g|fdge fddf | gBed cAAg | fdge fddf | B/B/B c2 A2 dg |
fdge fddf | gBed cAAg | fdge fdea | B/B/B cA d2 d |]
